docpilot_doctor/assets/icons/home.svg

<svg width="19" height="20" viewBox="0 0 19 20" fill="none" xmlns="http://www.w3.org/2000/svg">
<path d="M1.125 20C0.572715 20 0.125 19.5523 0.125 19V7.17039C0.125 6.85354 0.275163 6.55544 0.529772 6.36684L8.52977 0.440909C8.88337 0.178986 9.36663 0.178986 9.72023 0.440909L17.7202 6.36684C17.9748 6.55543 18.125 6.85354 18.125 7.17039V19C18.125 19.5523 17.6773 20 17.125 20H12.375C11.8227 20 11.375 19.5523 11.375 19V13.2222C11.375 12.6699 10.9273 12.2222 10.375 12.2222H7.875C7.32272 12.2222 6.875 12.6699 6.875 13.2222V19C6.875 19.5523 6.42728 20 5.875 20H1.125Z" fill="#C5C6CC"/>
</svg>

<svg xmlns="http://www.w3.org/2000/svg" width="19" height="20" fill="none" viewBox="0 0 19 20"><path fill="#c5c6cc" d="M1.125 20a1 1 0 0 1-1-1V7.17a1 1 0 0 1 .405-.803l8-5.926a1 1 0 0 1 1.19 0l8 5.926a1 1 0 0 1 .405.803V19a1 1 0 0 1-1 1h-4.75a1 1 0 0 1-1-1v-5.778a1 1 0 0 0-1-1h-2.5a1 1 0 0 0-1 1V19a1 1 0 0 1-1 1z"/></svg>
